icons/lines/threefull.svg

<svg xmlns="http://www.w3.org/2000/svg" width="24" height="24" viewBox="0 0 24 24" fill="none" stroke="currentColor" stroke-width="2" stroke-linecap="round" stroke-linejoin="round" >
  <path d="M20.5 9.5C22 9.5 22 10 22 11V13C22 14 22 14.5 20.5 14.5"/>
  <path d="M6.37988 10C6.70988 11.31 6.70988 12.69 6.37988 14"/>
  <path d="M9.87988 10C10.2099 11.31 10.2099 12.69 9.87988 14"/>
  <path d="M13 19H7C3 19 2 18 2 14V10C2 6 3 5 7 5H13C17 5 18 6 18 10V14C18 18 17 19 13 19Z"/>
  </svg>

<svg xmlns="http://www.w3.org/2000/svg" width="24" height="24" viewBox="0 0 24 24" fill="none" stroke="currentColor" stroke-width="2" stroke-linecap="round" stroke-linejoin="round">
  <path d="M20.5 9.5C22 9.5 22 10 22 11v2c0 1 0 1.5-1.5 1.5" />
  <path d="M6.38 10a8.2 8.2 0 0 1 0 4" />
  <path d="M7 19c-4 0-5-1-5-5v-4c0-4 1-5 5-5h6c4 0 5 1 5 5v4c0 4-1 5-5 5z" />
  <path d="M9.88 10a8.2 8.2 0 0 1 0 4" />
</svg>
